web/Website/img/svg-sprite/print.svg

<?xml version="1.0" encoding="utf-8"?>
<!-- Generator: Adobe Illustrator 19.2.0, SVG Export Plug-In . SVG Version: 6.00 Build 0)  -->
<!DOCTYPE svg PUBLIC "-//W3C//DTD SVG 1.1//EN" "http://www.w3.org/Graphics/SVG/1.1/DTD/svg11.dtd">
<svg version="1.1" id="layers" xmlns="http://www.w3.org/2000/svg" xmlns:xlink="http://www.w3.org/1999/xlink" x="0px" y="0px"
	 width="60px" height="60px" viewBox="0 0 60 60" style="enable-background:new 0 0 60 60;" xml:space="preserve">
<style type="text/css">
	.st0{fill-rule:evenodd;clip-rule:evenodd;fill:#231F20;}
	.st1{fill:#231F20;}
	.st2{fill-rule:evenodd;clip-rule:evenodd;}
	.st3{fill:#202020;}
</style>
<g>
	<g>
		<path d="M53.75,17.502H6.25c-3.446,0-6.25,2.803-6.25,6.249V38.75c0,3.446,2.804,6.251,6.25,6.251h6.25v11.25
			c0,0.691,0.56,1.249,1.25,1.249h32.5c0.69,0,1.25-0.558,1.25-1.249v-11.25h6.25c3.446,0,6.25-2.805,6.25-6.251V23.751
			C60,20.305,57.196,17.502,53.75,17.502z M45,55.001H15V37.502h30V55.001z M57.5,38.75c0,2.068-1.682,3.751-3.75,3.751H47.5v-6.25
			c0-0.692-0.56-1.251-1.25-1.251h-32.5c-0.69,0-1.25,0.559-1.25,1.251v6.25H6.25c-2.068,0-3.75-1.683-3.75-3.751V23.751
			C2.5,21.683,4.182,20,6.25,20h47.5c2.068,0,3.75,1.683,3.75,3.751V38.75z M13.75,15.001c0.69,0,1.25-0.559,1.25-1.25V5h22.5v6.25
			c0,0.692,0.56,1.251,1.25,1.251H45v1.25c0,0.692,0.56,1.25,1.25,1.25c0.69,0,1.25-0.559,1.25-1.25v-2.5
			c0-0.167-0.034-0.33-0.097-0.481c-0.064-0.153-0.157-0.29-0.273-0.405l-7.495-7.496c-0.115-0.115-0.252-0.207-0.404-0.271
			C39.08,2.534,38.917,2.5,38.75,2.5h-25c-0.69,0-1.25,0.561-1.25,1.251v10C12.5,14.442,13.059,15.001,13.75,15.001z M40,6.767
			l3.234,3.233H40V6.767z M8.75,22.5C6.682,22.5,5,24.183,5,26.25c0,2.068,1.682,3.751,3.75,3.751c2.068,0,3.75-1.683,3.75-3.751
			C12.5,24.183,10.818,22.5,8.75,22.5z M8.75,27.5c-0.689,0-1.25-0.56-1.25-1.25c0-0.689,0.561-1.25,1.25-1.25S10,25.562,10,26.25
			C10,26.94,9.439,27.5,8.75,27.5z M18.75,42.501h22.5c0.69,0,1.25-0.56,1.25-1.25c0-0.692-0.56-1.25-1.25-1.25h-22.5
			c-0.691,0-1.25,0.559-1.25,1.25C17.5,41.941,18.059,42.501,18.75,42.501z M18.75,47.5h22.5c0.69,0,1.25-0.559,1.25-1.25
			c0-0.691-0.56-1.25-1.25-1.25h-22.5c-0.691,0-1.25,0.559-1.25,1.25C17.5,46.942,18.059,47.5,18.75,47.5z M18.75,52.501h22.5
			c0.69,0,1.25-0.557,1.25-1.25c0-0.691-0.56-1.25-1.25-1.25h-22.5c-0.691,0-1.25,0.559-1.25,1.25
			C17.5,51.943,18.059,52.501,18.75,52.501z"/>
	</g>
</g>
</svg>

<svg xmlns="http://www.w3.org/2000/svg" width="60" height="60" viewBox="0 0 60 60"><path d="M53.75 17.5H6.25C2.8 17.5 0 20.3 0 23.75v15C0 42.2 2.8 45 6.25 45h6.25v11.25c0 .7.56 1.25 1.25 1.25h32.5c.7 0 1.25-.56 1.25-1.25V45h6.25C57.2 45 60 42.2 60 38.75v-15c0-3.45-2.8-6.25-6.25-6.25zM45 55H15V37.5h30V55zm12.5-16.25c0 2.07-1.68 3.75-3.75 3.75H47.5v-6.25c0-.7-.56-1.25-1.25-1.25h-32.5c-.7 0-1.25.56-1.25 1.25v6.25H6.25c-2.07 0-3.75-1.68-3.75-3.75v-15C2.5 21.68 4.18 20 6.25 20h47.5c2.07 0 3.75 1.68 3.75 3.75v15zM13.75 15c.7 0 1.25-.56 1.25-1.25V5h22.5v6.25c0 .7.56 1.25 1.25 1.25H45v1.25c0 .7.56 1.25 1.25 1.25.7 0 1.25-.56 1.25-1.25v-2.5c0-.17-.03-.33-.1-.48-.06-.15-.15-.3-.27-.4l-7.5-7.5c-.1-.12-.25-.2-.4-.27-.15-.07-.3-.1-.48-.1h-25c-.7 0-1.25.56-1.25 1.25v10c0 .7.56 1.25 1.25 1.25zM40 6.77L43.23 10H40V6.77zM8.75 22.5C6.68 22.5 5 24.18 5 26.25 5 28.32 6.68 30 8.75 30c2.07 0 3.75-1.68 3.75-3.75 0-2.07-1.68-3.75-3.75-3.75zm0 5c-.7 0-1.25-.56-1.25-1.25 0-.7.56-1.25 1.25-1.25s1.25.56 1.25 1.25c0 .7-.56 1.25-1.25 1.25zm10 15h22.5c.7 0 1.25-.56 1.25-1.25 0-.7-.56-1.25-1.25-1.25h-22.5c-.7 0-1.25.56-1.25 1.25 0 .7.56 1.25 1.25 1.25zm0 5h22.5c.7 0 1.25-.56 1.25-1.25 0-.7-.56-1.25-1.25-1.25h-22.5c-.7 0-1.25.56-1.25 1.25 0 .7.56 1.25 1.25 1.25zm0 5h22.5c.7 0 1.25-.56 1.25-1.25 0-.7-.56-1.25-1.25-1.25h-22.5c-.7 0-1.25.56-1.25 1.25 0 .7.56 1.25 1.25 1.25z"/></svg>
